X:20
T:G\"ardebyl\aaten
O:Sweden
R:G\aangl\aat
Z:John Chambers <jc@trillian.mit.edu>
A:Allemanns Marsj Mixer
Q:1/4=80
R:Ganglat
L:1/16
F:http://jc.tzo.net:1742/~jc/music/abc/march/GardebyG_2.abc
K:D
% %rightmargin 11.5cm
"Intro"[|]\
"D"d2fd "A"Acec | "D"d6
% %rightmargin 2.78cm
%P:A
|: FG \
| "D"ABAF ABAF | A2"D7"fe d2c2 | "G"BdBG BdBG | "Em"B2gf e2d2 |
"A7"c3d c2B2 | A2g2 f2e2 |1,3 "D"d2de f2fg | "(A7)"a6 :|2,4 "D"d2fd "A7"Acec | "D"d6 :|
%P:B
|: fg | "D"a4 fdfa | b2a2 "D7"g2f2 | "G"g3e B3e | "Em"g2f2 e2d2 |
"A7"c3d c2B2 | A2g2 f2e2 |1,3 "D"d2de f2fg | "(A7)"a6 :|2,4 "D"d2fd "A7"Acec | "D"d6 :|

